src/categories-icons-sprite/categories/svg-cat-prod-nuts.svg

<svg width="34" height="34" viewBox="0 0 34 34" fill="none" xmlns="http://www.w3.org/2000/svg">
<path class="p-FFF5F5" d="M31.151 19.8729C27.6652 16.3869 22.2869 16.0683 19.1796 19.1757C16.0722 22.283 16.3908 27.6613 19.8768 31.1471C23.2233 34.4936 28.6014 35.111 31.848 31.8441C33.3022 30.3902 33.9995 28.4779 33.9995 26.5259C33.9995 24.1753 32.9834 21.7253 31.151 19.8729Z" fill="#B9DFFC"/>
<path class="p-EFE2DD" d="M33.9996 26.526C33.9996 28.4779 33.3023 30.3902 31.8481 31.8441L19.1797 19.1757C22.287 16.0684 27.6651 16.3869 31.1511 19.8727C32.9835 21.7253 33.9996 24.1753 33.9996 26.526Z" fill="#A1D1FD"/>
<path class="p-FFB64C" d="M22.5797 15.3117C22.175 15.3117 21.7686 15.2905 21.3611 15.2477C20.9546 15.2059 20.5556 15.1136 20.1735 14.9753C18.8887 14.5073 17.8431 13.5183 17.3012 12.2597C16.7508 10.9788 16.7635 9.54429 17.3373 8.21954C18.1572 6.33372 20.187 5.20923 22.4747 5.34827C23.0796 5.38328 23.4321 6.43239 24.552 5.34827C25.0636 4.59456 25.013 4.35918 25.0636 4.0051C25.3992 1.68453 26.3923 0 28.6916 0H28.79C30.3489 0 31.8156 0.688701 32.8127 1.88971C33.7764 3.05026 34.1722 4.55269 33.8998 6.01466C33.4845 8.23718 32.4371 10.2104 30.7858 11.8786C28.5944 14.0952 25.6562 15.3117 22.5797 15.3117Z" fill="#A1D1FD"/>
<path class="p-FF9100" d="M22.1816 9.95947H24.1735V11.9514H22.1816V9.95947Z" fill="#4D98CB"/>
<path class="p-FF9100" d="M24.1738 7.96777H26.1657V9.95968H24.1738V7.96777Z" fill="#58ADE5"/>
<path class="p-61D7A8" d="M14.9241 19.0759L13.7288 24.992L8.39062 25.6094L9.00799 20.2712L14.9241 19.0759Z" fill="#5FBEFF"/>
<path class="p-00AB94" d="M14.9241 19.0759L13.7288 24.992L8.39062 25.6094L14.9241 19.0759Z" fill="#4D98CB"/>
<path class="p-FFB64C" d="M13.6022 13.1403L13.4427 13.4391L13.1439 13.5984C11.7896 14.2756 10.2954 14.6142 8.82155 14.6142C6.8496 14.6142 4.91735 14.0365 3.28418 12.8811L3.40376 5.71033L5.71422 3.39961L12.905 3.28003C14.8969 6.14845 15.1758 9.95304 13.6022 13.1403Z" fill="#A1D1FD"/>
<path class="p-FF9100" d="M13.603 13.1403L13.4434 13.4391L4.55957 4.55497L5.71493 3.39961L12.9057 3.28003C14.8976 6.14845 15.1765 9.95304 13.603 13.1403Z" fill="#65B3E7"/>
<path class="p-FF9100" d="M0.0380859 1.42747L1.43235 0.0332031L3.54385 2.1447L2.14958 3.53897L0.0380859 1.42747Z" fill="#65B3E7"/>
<path class="p-FFF5F5" d="M8.46752 25.5323L11.0595 17.9004L9.74492 17.9403C7.35483 18.02 3.53026 20.6295 1.67764 22.4619C-1.92773 26.0673 1.37882 31.8638 1.51837 32.1229L1.65767 32.3419L1.87686 32.4814C2.03639 32.5611 4.54607 33.9953 7.27493 33.9953C8.74909 33.9953 10.2826 33.5769 11.5376 32.3219C13.3703 30.4695 15.9798 26.645 16.0594 24.2546L16.0994 22.94L8.46752 25.5323Z" fill="#B9DFFC"/>
<path class="p-EFE2DD" d="M16.0987 22.9402L16.059 24.2548C15.9794 26.6452 13.3698 30.4697 11.5372 32.3221C10.2822 33.5771 8.74865 33.9955 7.27449 33.9955C4.54562 33.9955 2.03569 32.5613 1.87642 32.4816L1.65723 32.3421L8.46707 25.5325L16.0987 22.9402Z" fill="#A1D1FD"/>
<path class="p-FF641A" d="M2.84659 2.8417L0.735352 0.730465L1.43235 0.0332031L3.54385 2.14444L2.84659 2.8417Z" fill="#4D98CB"/>
<path class="p-FF9100" d="M11.5111 1.68615C8.76227 -0.584616 4.69881 -0.425087 2.14919 2.14425C-0.400696 4.67416 -0.559966 8.73762 1.69083 11.4865C2.12921 12.0442 2.76655 12.5819 3.28457 12.8807L5.39607 7.70185L8.62544 8.62076L7.70653 5.39113L12.9054 3.27963C12.3477 2.40339 11.8896 2.00495 11.5111 1.68615Z" fill="#65B3E7"/>
<path class="p-FF641A" d="M12.9056 3.27959L7.70675 5.39109L8.62567 8.62072L2.14941 2.14421C4.69904 -0.425126 8.7625 -0.584656 11.5113 1.68637C11.8898 2.00491 12.3479 2.40335 12.9056 3.27959Z" fill="#4D98CB"/>
<path class="p-FF9100" d="M27.6252 23.3985C25.7726 21.5459 22.7649 21.6854 22.6453 21.7051L21.7491 21.7451L21.7094 22.6416C21.6894 22.7609 21.5499 26.6878 23.4022 28.5401C24.976 30.1137 27.3861 29.3343 28.143 29.3343C28.2826 29.3343 28.3622 29.3343 28.3822 29.3143L29.2784 29.2746L29.3183 28.3782C29.3183 28.3584 29.3383 28.2588 29.3383 28.0993C29.3383 27.2827 29.1591 24.932 27.6252 23.3985Z" fill="#65B3E7"/>
<path class="p-FF641A" d="M29.3392 28.0993C29.3392 28.2586 29.3195 28.3582 29.3195 28.3782L29.2795 29.2744L21.75 21.7451L22.6462 21.7051C22.7658 21.6854 26.6924 21.5459 28.545 23.3982C30.0789 24.9321 29.3392 27.2827 29.3392 28.0993Z" fill="#4D98CB"/>
</svg>

<svg width="34" height="34" fill="none" xmlns="http://www.w3.org/2000/svg"><path class="p-FFF5F5" d="M31.151 19.873c-3.486-3.486-8.864-3.805-11.971-.697-3.108 3.107-2.79 8.485.697 11.971 3.346 3.347 8.724 3.964 11.971.697 1.454-1.454 2.151-3.366 2.151-5.318 0-2.35-1.016-4.8-2.848-6.653z" fill="#B9DFFC"/><path class="p-EFE2DD" d="M34 26.526c0 1.952-.698 3.864-2.152 5.318L19.18 19.176c3.107-3.108 8.485-2.79 11.971.697C32.983 21.725 34 24.175 34 26.526z" fill="#A1D1FD"/><path class="p-FFB64C" d="M22.58 15.312c-.405 0-.811-.021-1.219-.064a4.992 4.992 0 01-1.188-.273 5.004 5.004 0 01-2.872-2.715c-.55-1.281-.537-2.716.036-4.04.82-1.886 2.85-3.01 5.138-2.872.605.035.957 1.084 2.077 0 .512-.753.461-.989.512-1.343C25.399 1.685 26.392 0 28.692 0h.098c1.559 0 3.026.689 4.023 1.89A5.007 5.007 0 0133.9 6.015c-.416 2.222-1.463 4.195-3.114 5.864a11.5 11.5 0 01-8.206 3.433z" fill="#A1D1FD"/><path class="p-FF9100" d="M22.182 9.96h1.992v1.991h-1.992V9.96z" fill="#4D98CB"/><path class="p-FF9100" d="M24.174 7.968h1.992V9.96h-1.992V7.968z" fill="#58ADE5"/><path class="p-61D7A8" d="M14.924 19.076l-1.195 5.916-5.338.617.617-5.338 5.916-1.195z" fill="#5FBEFF"/><path class="p-00AB94" d="M14.924 19.076l-1.195 5.916-5.338.617 6.533-6.533z" fill="#4D98CB"/><path class="p-FFB64C" d="M13.602 13.14l-.16.3-.298.158a9.7 9.7 0 01-4.322 1.016c-1.972 0-3.905-.578-5.538-1.733l.12-7.17L5.714 3.4l7.191-.12c1.992 2.868 2.27 6.673.697 9.86z" fill="#A1D1FD"/><path class="p-FF9100" d="M13.603 13.14l-.16.3L4.56 4.554 5.715 3.4l7.19-.12c1.993 2.868 2.272 6.673.698 9.86zM.038 1.427L1.432.033l2.112 2.112L2.15 3.539.038 1.427z" fill="#65B3E7"/><path class="p-FFF5F5" d="M8.468 25.532l2.591-7.632-1.314.04c-2.39.08-6.215 2.69-8.067 4.522-3.606 3.605-.3 9.402-.16 9.66l.14.22.219.14c.16.08 2.67 1.513 5.398 1.513 1.474 0 3.008-.418 4.263-1.673 1.832-1.853 4.442-5.677 4.521-8.067l.04-1.315-7.631 2.592z" fill="#B9DFFC"/><path class="p-EFE2DD" d="M16.099 22.94l-.04 1.315c-.08 2.39-2.69 6.215-4.522 8.067-1.255 1.255-2.788 1.673-4.263 1.673-2.728 0-5.238-1.434-5.398-1.513l-.219-.14 6.81-6.81L16.1 22.94z" fill="#A1D1FD"/><path class="p-FF641A" d="M2.847 2.842L.735.73l.697-.697 2.112 2.111-.697.698z" fill="#4D98CB"/><path class="p-FF9100" d="M11.511 1.686C8.762-.584 4.7-.425 2.15 2.144-.4 4.674-.56 8.738 1.691 11.486a6.081 6.081 0 001.594 1.395L5.396 7.7l3.23.92-.92-3.23 5.2-2.111c-.558-.877-1.016-1.275-1.395-1.594z" fill="#65B3E7"/><path class="p-FF641A" d="M12.906 3.28l-5.2 2.111.92 3.23-6.477-6.477c2.55-2.57 6.613-2.729 9.362-.458.379.319.837.717 1.395 1.594z" fill="#4D98CB"/><path class="p-FF9100" d="M27.625 23.398c-1.852-1.852-4.86-1.713-4.98-1.693l-.896.04-.04.897c-.02.119-.16 4.046 1.693 5.898 1.574 1.574 3.984.794 4.741.794.14 0 .22 0 .24-.02l.895-.04.04-.896c0-.02.02-.12.02-.279 0-.816-.179-3.167-1.713-4.7z" fill="#65B3E7"/><path class="p-FF641A" d="M29.34 28.1c0 .159-.02.258-.02.278l-.04.896-7.53-7.529.896-.04c.12-.02 4.046-.16 5.899 1.693 1.534 1.534.794 3.885.794 4.701z" fill="#4D98CB"/></svg>
